X: 287
T: Benim Yârim Gelişinden Bellidir
C: Sadettin Kaynak
O: Turkey
F: http://compmusic.upf.edu/node/140
N: hicaz--sarki--raksaksagi--benim_yarim--sadettin_kaynak
N: makam= hicaz
N: form= sarki
N: usul= raksaksagi = 9/8
M: 9/8
L: 1/16
K: C _7/8B ^f ^c 
Q: 1/4=192
%%MIDI tuningsystem comma53
d4 A2B2 c2de dcBA G2 | d4A2 B2c2 dedc BAB2  | 
w:  ARANAĞME  |   | 
d2{e}d2 c2B2 A2A6 z2 | d4A2 B2c2 dedc BAG2  | \
w:   |  ARANAĞME  | 
d4 A2B2 c2de dcBA B2 | 
w:   | 
d2 {e}d2c2 B2A2 A6z2  | c2d2 e4 d2dc dec2 B2 | \
w:   |  Be *  nim  *  yâ *  *  *  rim   | 
c2 d2e4d2 d3c B2c2  | 
w:  ge *  li *  şin *  den   | 
B2A2 A6A6 z2 | c2 d2e4d2 dcde c2B2  | \
w:  bel *  li dir    |  Ak_ *  el *  le *  *  *  ri   | 
c2d2 e4 d2d3cB2 c2 | 
w:  des *  te  *  des *  te   | 
B2 A2A6 A6z2  | =c4 c6c4c2 _1/4B2 | d4d6 d2c2 B2A2  | \
w:  gül *  lü dür    |  İb ri şim  ku  |  şak lı  in *  ce   | 
B2A2 G4 F2G4z4 | 
w:  bel *  li *  dir    | 
F2 G2A6 A4 A4  | c2d2 e2=f2 g2fe dcB2 c2 | \
w:  İn *  ce  bel le  |  ri *  ni  *  *  sar  *  *  *  *  de  | 
B2 A2A6 A6z2  | 
w:  di  *  ba na    | 
d4 d2d2 dec2 B2A2 G2 | d4d2 d2de c2B2 A2B2  | \
w:  Gel  gel  a man  *  ge li şi ne   |  gül  gül_ a man  *  gü lü şü ne   | 
c2d2 c2B2 A2A4z4 | 
w:  hay ran_ o *  la yım    | 
d4d2 d2de c2B2 A2G2  | d4 d2d2 dec2 B2A2 B2 | \
w:  Gel  gel  a man  *  ge li şi ne   |  gül  gül_ a man  *  gü lü şü ne   | 
c2 d2c2 B2A2 A4 z4  | 
w:  hay ran_ o *  la yım    | 
d4 A2B2 c2de dcBA G2 | d4A2 B2c2 dedc BAB2  | 
w:  ARANAĞME  |   | 
d2{e}d2 c2B2 A2A6 z2 | d4A2 B2c2 dedc BAG2  | \
w:   |  ARANAĞME  | 
d4 A2B2 c2de dcBA B2 | 
w:   | 
d2 {e}d2c2 B2A2 A6z2  | c2d2 e4 d2dc dec2 B2 | \
w:   |  Be *  nim  *  yâ *  *  *  rim   | 
c2 d2e4d2 d3c B2c2  | 
w:  ge *  li *  şin *  den   | 
B2A2 A6A6 z2 | c2 d2e4d2 dcde c2B2  | \
w:  bel *  li dir    |  Ak_ *  el *  le *  *  *  ri   | 
c2d2 e4 d2d3cB2 c2 | 
w:  des *  te  *  des *  te   | 
B2 A2A6 A6z2  | =c4 c6c4c2 _1/4B2 | d4d6 d2c2 B2A2  | \
w:  gül *  lü dür    |  İb ri şim  ku  |  şak lı  in *  ce   | 
B2A2 G4 F2G4z4 | 
w:  bel *  li *  dir    | 
F2 G2A6 A4 A4  | c2d2 e2=f2 g2fe dcB2 c2 | \
w:  İn *  ce  bel le  |  ri *  ni  *  *  sar  *  *  *  *  de  | 
B2 A2A6 A6z2  | 
w:  di  *  ba na    | 
d4 d2d2 dec2 B2A2 G2 | d4d2 d2de c2B2 A2B2  | \
w:  Gel  gel  a man  *  ge li şi ne   |  gül  gül_ a man  *  gü lü şü ne   | 
c2d2 c2B2 A2A4z4 | 
w:  hay ran_ o *  la yım    | 
d4d2 d2de c2B2 A2G2  | d4 d2d2 dec2 B2A2 B2 | \
w:  Gel  gel  a man  *  ge li şi ne   |  gül  gül_ a man  *  gü lü şü ne   | 
c2 d2c2 B2A2 A4 z4  | 
w:  hay ran_ o *  la yım    | 
|


